X:1
T:Morrison's Jig
L:1/8
M:6/8
I:linebreak $
K:D
V:1 treble 
V:1
 E3 B3 | E3 AFD | E3 BAB | dcB AFD | E3 BAB | E3 AFD | G3 FGA | dAG FED :: x6 ||$ Bee fee | %10
 aee fed | Bee fee | a2 g fed | Bee fee | aee fed | gfe d2 A |$ BAG FED | Bee fee | aee fed | %19
 Bee fee | faf def | g3 gfe | def g2 d | edc d2 A |$ BAG FED || %25
